build/img/icon-tag-w.svg

<svg width="33" height="32" viewBox="0 0 33 32" fill="none" xmlns="http://www.w3.org/2000/svg">
<path d="M10.7945 7.84883C10.6776 7.73257 10.5155 7.66568 10.3502 7.66568C10.1849 7.66568 10.0227 7.73257 9.90583 7.84883C9.78899 7.9651 9.72168 8.12637 9.72168 8.29077C9.72168 8.45517 9.78893 8.61645 9.90583 8.73272C10.0227 8.84905 10.1849 8.91587 10.3502 8.91587C10.5155 8.91587 10.6776 8.84898 10.7945 8.73272C10.9114 8.61645 10.9787 8.45517 10.9787 8.29077C10.9787 8.12637 10.9114 7.9651 10.7945 7.84883Z" fill="#ffffff"/>
<path d="M32.6111 2.61363L31.8339 1.83982L32.6108 1.06715C32.8563 0.823046 32.8563 0.427236 32.6108 0.183075C32.3653 -0.0610248 31.9675 -0.0610248 31.7219 0.183075L30.9455 0.955253L30.1798 0.192763C30.0619 0.0754958 29.9021 0.0094858 29.7355 0.0094233L19.0977 0.00354741C19.0971 0.00354741 19.0965 0.00354741 19.0959 0.00354741C18.2559 0.00354741 17.4662 0.328846 16.8722 0.919623L11.5638 6.19917C11.3184 6.44327 11.3184 6.83908 11.5638 7.08324C11.8093 7.32734 12.2071 7.32734 12.4527 7.08324L17.7611 1.80369C18.1177 1.44902 18.5917 1.2538 19.0959 1.2538C19.0963 1.2538 19.0967 1.2538 19.097 1.2538L29.4744 1.25955L30.0568 1.83939L27.7247 4.15874C26.7358 3.56965 25.4321 3.6981 24.5809 4.54461C24.0946 5.02831 23.8268 5.67134 23.8268 6.35532C23.8268 7.0393 24.0946 7.68233 24.5809 8.16603C25.0828 8.66523 25.7422 8.91483 26.4015 8.91483C27.0608 8.91483 27.7201 8.66523 28.2221 8.16603C29.072 7.32071 29.202 6.02664 28.6128 5.04362L30.9452 2.72396L31.5378 3.31411L31.5321 13.6211C31.5317 14.1222 31.3354 14.5933 30.9791 14.9477L15.642 30.2013C15.2855 30.5559 14.8114 30.7512 14.3072 30.7512C13.803 30.7512 13.3289 30.5559 12.9724 30.2013L2.42522 19.7114C2.0686 19.3568 1.87225 18.8853 1.87225 18.3838C1.87225 17.8824 2.0686 17.4109 2.42522 17.0562L9.20017 10.3181C9.4456 10.074 9.4456 9.67819 9.20017 9.43403C8.95468 9.18993 8.55683 9.18993 8.31127 9.43403L1.53632 16.1722C0.942374 16.7629 0.615234 17.5484 0.615234 18.3838C0.615234 19.2193 0.942374 20.0048 1.53632 20.5955L12.0835 31.0854C12.6966 31.6951 13.5018 32 14.3072 32C15.1126 32 15.9178 31.6951 16.5309 31.0854L31.8679 15.8316C32.4614 15.2413 32.7885 14.4565 32.789 13.6217L32.7949 3.0557C32.795 2.88992 32.7289 2.7309 32.6111 2.61363ZM27.3332 7.2819C27.0843 7.52943 26.7534 7.66577 26.4015 7.66577C26.0495 7.66577 25.7187 7.52943 25.4698 7.2819C24.956 6.77094 24.956 5.93951 25.4698 5.42855C25.7267 5.17302 26.064 5.04531 26.4015 5.04531C26.5286 5.04531 26.6556 5.0635 26.7785 5.09975L26.053 5.82124C25.8076 6.06534 25.8076 6.46115 26.053 6.70531C26.1758 6.82739 26.3366 6.8884 26.4974 6.8884C26.6583 6.8884 26.8191 6.82739 26.9419 6.70531L27.6653 5.98582C27.7959 6.43083 27.6854 6.93165 27.3332 7.2819Z" fill="#ffffff"/>
<path d="M27.4632 12.5847L20.1386 5.29986C19.1683 4.33484 17.5895 4.33496 16.6193 5.29986L5.02826 16.828C4.5582 17.2954 4.29932 17.917 4.29932 18.5781C4.29932 19.2392 4.55814 19.8607 5.0282 20.3282L12.3528 27.6129C12.8229 28.0804 13.4478 28.3379 14.1125 28.3379C14.7772 28.3379 15.4022 28.0805 15.8721 27.613L27.4632 16.0849C27.9333 15.6174 28.1921 14.9959 28.1921 14.3348C28.1921 13.6737 27.9333 13.0522 27.4632 12.5847ZM26.5743 15.2008L14.9833 26.729C14.7507 26.9603 14.4414 27.0877 14.1125 27.0877C13.7837 27.0877 13.4744 26.9603 13.2418 26.729L5.9171 19.4442C5.68449 19.2128 5.5564 18.9053 5.5564 18.5781C5.55634 18.2509 5.68449 17.9433 5.9171 17.712L17.5082 6.18393C17.7483 5.94515 18.0636 5.82575 18.379 5.82575C18.6943 5.82575 19.0097 5.94521 19.2497 6.18393L26.5743 13.4687C26.8069 13.7001 26.935 14.0076 26.935 14.3348C26.935 14.6619 26.8069 14.9695 26.5743 15.2008Z" fill="#ffffff"/>
<path d="M21.1098 12.5047C21.3553 12.2606 21.3553 11.8648 21.1098 11.6206C20.8643 11.3765 20.4665 11.3765 20.2209 11.6206L19.859 11.9805C18.8927 11.3869 17.6528 11.4666 16.869 12.246C16.412 12.7005 16.1782 13.3177 16.2106 13.9839C16.242 14.6272 16.5205 15.2414 16.9949 15.7131C16.9949 15.7132 16.995 15.7132 16.995 15.7133C17.5005 16.2163 17.5569 16.9784 17.1208 17.4122C16.6844 17.8461 15.918 17.7899 15.4123 17.2871C14.9066 16.7841 14.8501 16.0218 15.2864 15.5879C15.5318 15.3438 15.5318 14.948 15.2864 14.7038C15.0409 14.4597 14.643 14.4597 14.3975 14.7038C13.6137 15.4833 13.5337 16.7165 14.1306 17.6776L13.7012 18.1046C13.4557 18.3487 13.4557 18.7445 13.7012 18.9887C13.8242 19.1109 13.9851 19.1719 14.1459 19.1719C14.3068 19.1719 14.4676 19.1108 14.5903 18.9888L15.02 18.5615C15.4422 18.8209 15.9165 18.9523 16.3823 18.9523C16.9825 18.9522 17.5684 18.7351 18.0097 18.2963C18.9359 17.3751 18.8796 15.8202 17.8843 14.8297C17.8841 14.8295 17.884 14.8293 17.8838 14.8291C17.6308 14.5775 17.4825 14.2559 17.4662 13.9234C17.4512 13.6138 17.5547 13.3321 17.7579 13.1301C18.1941 12.6962 18.9604 12.7523 19.4662 13.2551C19.4662 13.2551 19.4662 13.2552 19.4663 13.2553C19.4664 13.2553 19.4664 13.2553 19.4664 13.2553C19.972 13.7583 20.0284 14.5205 19.5921 14.9543C19.3467 15.1984 19.3467 15.5943 19.5921 15.8384C19.7149 15.9605 19.8757 16.0215 20.0365 16.0215C20.1974 16.0215 20.3582 15.9605 20.481 15.8384C21.2647 15.0589 21.3448 13.8257 20.7479 12.8646L21.1098 12.5047Z" fill="#ffffff"/>
<path d="M14.7493 22.8677L11.5212 19.6571C11.2758 19.4132 10.8779 19.4131 10.6323 19.6571C10.3869 19.9012 10.3869 20.297 10.6323 20.5412L13.8605 23.7518C13.9832 23.8738 14.1441 23.9349 14.3049 23.9349C14.4657 23.9349 14.6266 23.8738 14.7493 23.7518C14.9947 23.5077 14.9947 23.1119 14.7493 22.8677Z" fill="ffffff"/>
<path d="M9.79888 17.9445C9.68204 17.8283 9.52045 17.7614 9.35458 17.7614C9.18929 17.7614 9.02776 17.8283 8.91023 17.9445C8.79333 18.0608 8.72607 18.2221 8.72607 18.3871C8.72607 18.5515 8.79326 18.7128 8.91023 18.829C9.02713 18.9453 9.18929 19.0122 9.35458 19.0122C9.52051 19.0122 9.68204 18.9453 9.79888 18.829C9.91641 18.7122 9.98366 18.5515 9.98366 18.3871C9.98366 18.2221 9.91641 18.0614 9.79888 17.9445Z" fill="#ffffff"/>
</svg>

<svg width="33" height="32" fill="none" xmlns="http://www.w3.org/2000/svg"><path d="M10.794 7.849a.635.635 0 00-.444-.183.628.628 0 00-.629.625.628.628 0 001.258 0 .628.628 0 00-.184-.442z" fill="#fff"/><path d="M32.611 2.614l-.777-.774.777-.773a.623.623 0 000-.884.631.631 0 00-.89 0l-.776.772-.765-.762a.63.63 0 00-.445-.184L19.098.004h-.002c-.84 0-1.63.325-2.224.916L11.564 6.2a.623.623 0 000 .883.631.631 0 00.889 0l5.308-5.28a1.88 1.88 0 011.335-.55h.001l10.377.007.583.58-2.332 2.319a2.59 2.59 0 00-3.144.386 2.537 2.537 0 00-.754 1.81 2.57 2.57 0 002.574 2.56c.66 0 1.32-.25 1.821-.749.85-.845.98-2.14.39-3.122l2.333-2.32.593.59-.006 10.307c0 .501-.197.972-.553 1.327L15.642 30.2a1.88 1.88 0 01-1.335.55 1.88 1.88 0 01-1.335-.55L2.425 19.711a1.86 1.86 0 01-.553-1.327c0-.502.197-.973.553-1.328L9.2 10.318a.623.623 0 000-.884.631.631 0 00-.889 0l-6.775 6.738a3.099 3.099 0 00-.92 2.212c0 .835.326 1.62.92 2.212l10.548 10.49a3.14 3.14 0 002.223.914c.806 0 1.61-.305 2.224-.915l15.337-15.253a3.1 3.1 0 00.921-2.21l.006-10.566a.623.623 0 00-.184-.442zm-5.278 4.668c-.249.247-.58.384-.931.384-.353 0-.683-.137-.932-.384a1.307 1.307 0 010-1.853 1.317 1.317 0 011.309-.33l-.726.722a.623.623 0 00.444 1.067c.161 0 .322-.06.445-.183l.723-.72c.13.446.02.947-.332 1.297z" fill="#fff"/><path d="M27.463 12.585L20.14 5.3a2.501 2.501 0 00-3.52 0L5.03 16.828a2.452 2.452 0 00-.73 1.75c0 .661.26 1.283.73 1.75l7.324 7.285a2.48 2.48 0 001.76.725c.664 0 1.29-.258 1.76-.725l11.59-11.528c.47-.468.73-1.09.73-1.75 0-.661-.26-1.283-.73-1.75zm-.889 2.616l-11.59 11.528a1.227 1.227 0 01-.871.359c-.33 0-.639-.128-.871-.359l-7.325-7.285a1.214 1.214 0 01-.36-.866c0-.327.127-.635.36-.866L17.508 6.184a1.23 1.23 0 01.871-.358c.315 0 .63.12.87.358l7.325 7.285a1.217 1.217 0 01.001 1.732z" fill="#fff"/><path d="M21.11 12.505a.623.623 0 000-.884.631.631 0 00-.89 0l-.361.36c-.966-.594-2.206-.514-2.99.265a2.261 2.261 0 00-.658 1.738c.031.643.31 1.257.784 1.73.505.502.562 1.264.126 1.698-.437.434-1.203.378-1.709-.125-.505-.503-.562-1.265-.126-1.7a.623.623 0 000-.883.631.631 0 00-.888 0c-.784.78-.864 2.012-.267 2.974l-.43.427a.623.623 0 000 .884.629.629 0 00.89 0l.429-.428c.422.26.896.391 1.362.391.6 0 1.186-.217 1.628-.656.926-.92.87-2.476-.126-3.466a1.379 1.379 0 01-.418-.907 1.03 1.03 0 01.292-.793c.436-.434 1.202-.378 1.708.125s.562 1.265.126 1.7a.623.623 0 00.445 1.066c.16 0 .321-.06.444-.183.784-.78.864-2.012.267-2.973l.362-.36z" fill="#fff"/><path d="M14.75 22.868l-3.229-3.21a.631.631 0 00-.889 0 .623.623 0 000 .883l3.229 3.21a.629.629 0 00.888 0 .623.623 0 000-.883z" fill="ffffff"/><path d="M9.799 17.945a.634.634 0 00-.889 0 .629.629 0 00-.184.442.628.628 0 101.073-.442z" fill="#fff"/></svg>
